src/assets/logos/sveltejs.svg

<svg width="50" height="50" viewBox="0 0 50 50" fill="none" xmlns="http://www.w3.org/2000/svg">
<path d="M46.8128 6.61541C41.2333 -0.0296834 30.2126 -1.99934 22.2453 2.22541L8.25349 9.64752C7.31222 10.1399 6.43409 10.7125 5.63516 11.3559C4.83522 11.9994 4.11849 12.7105 3.49598 13.4775C2.87348 14.2445 2.34821 15.0632 1.92819 15.9204C1.5092 16.7779 1.19812 17.6693 0.999947 18.5802C0.834547 19.3439 0.744328 20.1184 0.732299 20.8946C0.719268 21.6716 0.784425 22.4478 0.925767 23.2148C1.06711 23.9826 1.28464 24.7396 1.57534 25.4774C1.86604 26.2152 2.22992 26.9313 2.66297 27.619C2.36506 27.9959 2.09005 28.385 1.83898 28.7849C1.58737 29.1847 1.36082 29.5953 1.15933 30.0143C0.957845 30.4333 0.78242 30.8606 0.633059 31.2946C0.483698 31.7286 0.361402 32.1684 0.265169 32.6124C-0.134695 34.4795 -0.0818667 36.3944 0.420545 38.2443C0.671151 39.1665 1.03102 40.0662 1.49615 40.9292C1.96127 41.7922 2.52764 42.6151 3.18924 43.3846C8.76874 50.0297 19.7884 51.9993 27.7557 47.7746L41.7475 40.3834C42.6888 39.8901 43.5649 39.3167 44.3638 38.6724C45.1626 38.0286 45.8792 37.3176 46.502 36.5509C47.1245 35.7847 47.6498 34.966 48.0698 34.1088C48.4898 33.2525 48.8016 32.3612 49.0011 31.4506C49.1665 30.687 49.2557 29.9133 49.2677 29.1371C49.2797 28.3609 49.2146 27.5848 49.0722 26.8178C48.9309 26.0508 48.7134 25.2946 48.4217 24.5568C48.1299 23.8199 47.7661 23.1038 47.333 22.4161C47.6307 22.0397 47.9064 21.6499 48.158 21.2501C48.4086 20.8504 48.6362 20.4397 48.8377 20.0208C49.0391 19.6018 49.2156 19.1745 49.3659 18.7405C49.5153 18.3073 49.6396 17.8675 49.7368 17.4235C49.9353 16.4921 50.0215 15.5465 49.9955 14.6009C49.9694 13.6553 49.8301 12.7147 49.5795 11.7916C49.3288 10.8694 48.969 9.96967 48.5039 9.10669C48.0393 8.24357 47.4728 7.42106 46.8128 6.6513" fill="#FF3E00"/>
<path d="M20.8782 44.0273C19.7831 44.2641 18.6511 44.3604 17.5211 44.3127C16.3914 44.2643 15.2767 44.074 14.2161 43.746C13.1555 43.4185 12.161 42.9584 11.267 42.3814C10.3736 41.8041 9.59114 41.1168 8.94636 40.3433C8.5484 39.8801 8.20758 39.386 7.9289 38.8669C7.64942 38.3481 7.43282 37.8074 7.28234 37.2528C7.13298 36.6978 7.04878 36.1319 7.03374 35.5636C7.0187 34.9952 7.07183 34.4268 7.19212 33.8668C7.21117 33.7758 7.23322 33.6849 7.25728 33.5947C7.28033 33.5038 7.3064 33.4136 7.33447 33.3243C7.36153 33.2342 7.3916 33.1449 7.42368 33.0556C7.45476 32.9671 7.48884 32.8786 7.52392 32.791L7.78756 32.1208L8.5063 32.5673C8.9183 32.8177 9.34332 33.0539 9.77938 33.2743C10.2154 33.4954 10.6625 33.7007 11.1196 33.8894C11.5757 34.0788 12.0429 34.2524 12.517 34.4085C12.9911 34.5654 13.4733 34.7048 13.9625 34.8274L14.4988 34.9568L14.4507 35.4033C14.4248 35.7072 14.4628 36.0125 14.5629 36.3055C14.6121 36.4524 14.6772 36.5943 14.7564 36.7312C14.8356 36.868 14.9288 36.9991 15.0351 37.1226C15.2298 37.3556 15.4661 37.5624 15.7358 37.736C16.0044 37.9096 16.3042 38.0482 16.6239 38.1467C16.9437 38.2451 17.2785 38.3019 17.6193 38.3161C17.9592 38.3311 18.3 38.3019 18.6298 38.2301C18.706 38.2134 18.7801 38.1942 18.8543 38.1725C18.9285 38.1508 19.0017 38.1275 19.0728 38.1007C19.145 38.0749 19.2152 38.0465 19.2854 38.0156C19.3545 37.9856 19.4217 37.953 19.4879 37.918L33.4586 30.495C33.6299 30.4056 33.7895 30.3016 33.9348 30.1846C34.0801 30.0669 34.2094 29.9375 34.3227 29.7981C34.436 29.6588 34.5302 29.5094 34.6064 29.3533C34.6816 29.1972 34.7377 29.0353 34.7738 28.8701C34.8089 28.7006 34.8239 28.5295 34.8189 28.3576C34.8139 28.1865 34.7878 28.0163 34.7417 27.8485C34.6966 27.6816 34.6305 27.5188 34.5453 27.3619C34.4611 27.2059 34.3568 27.0573 34.2365 26.9179C34.042 26.6851 33.8065 26.4789 33.5368 26.3053C33.2672 26.1317 32.9674 25.9932 32.6487 25.8947C32.3292 25.7962 31.9935 25.7388 31.6533 25.7244C31.3124 25.7103 30.9716 25.7395 30.6418 25.8104C30.5666 25.8271 30.4915 25.8463 30.4173 25.868C30.3431 25.8897 30.2709 25.9131 30.1987 25.9389C30.1266 25.9656 30.0564 25.994 29.9872 26.0249C29.9181 26.0549 29.8499 26.0883 29.7837 26.1234L24.4188 28.9594C24.2002 29.0745 23.9757 29.183 23.7472 29.2849C23.5176 29.3858 23.285 29.4802 23.0475 29.5669C22.8099 29.6537 22.5683 29.733 22.3237 29.804C22.0791 29.8758 21.8315 29.9392 21.5809 29.9951C20.4873 30.2305 19.3575 30.3256 18.2298 30.2772C17.1021 30.2288 15.9904 30.0377 14.9318 29.7113C13.8733 29.3842 12.8809 28.9243 11.9887 28.3484C11.0966 27.7726 10.3147 27.0874 9.67011 26.3153C9.27416 25.8521 8.93433 25.3572 8.65666 24.8381C8.37799 24.319 8.16247 23.7782 8.01311 23.224C7.86375 22.669 7.78155 22.1031 7.76751 21.5348C7.75248 20.9672 7.8056 20.3989 7.9269 19.8397C8.16389 18.7387 8.67395 17.691 9.42452 16.7633C10.1756 15.8357 11.1511 15.0488 12.2884 14.4532L26.3023 7.03105C26.5199 6.91588 26.7424 6.80738 26.9699 6.70556C27.1975 6.60457 27.4301 6.51026 27.6656 6.42346C27.9017 6.33663 28.1418 6.25756 28.3854 6.18644C28.628 6.11466 28.8745 6.0504 29.1241 5.99448C30.2188 5.75829 31.3505 5.66147 32.4793 5.70904C33.609 5.75745 34.7227 5.94774 35.7833 6.27574C36.8438 6.6029 37.8372 7.0636 38.7314 7.64031C39.6244 8.21797 40.4066 8.90549 41.051 9.67924C41.4479 10.1416 41.7898 10.6357 42.0694 11.1548C42.3491 11.6739 42.5656 12.2139 42.717 12.7689C42.8674 13.3239 42.9516 13.8898 42.9666 14.4582C42.9827 15.0265 42.9305 15.5949 42.8102 16.1549C42.7892 16.2467 42.7671 16.3385 42.7421 16.4295C42.718 16.5205 42.692 16.6114 42.6639 16.7016C42.6368 16.7925 42.6067 16.8827 42.5757 16.972C42.5446 17.0621 42.5125 17.1514 42.4774 17.2399L42.2098 17.9101L41.4961 17.4636C41.0831 17.2107 40.657 16.9737 40.22 16.7508C39.7829 16.5288 39.3338 16.3218 38.8757 16.1307C37.9586 15.7498 37.0046 15.4338 36.0238 15.1859L35.4865 15.0566L35.5357 14.6101C35.5507 14.4573 35.5497 14.3038 35.5326 14.1519C35.5166 14 35.4835 13.8489 35.4354 13.7012C35.3863 13.5543 35.3231 13.4099 35.2439 13.2722C35.1658 13.1337 35.0725 13.0018 34.9663 12.8766C34.7707 12.6479 34.5344 12.4452 34.2656 12.2757C33.9971 12.1054 33.699 11.9703 33.3814 11.8751C32.7434 11.6823 32.0499 11.6564 31.3936 11.8008C31.3175 11.8175 31.2423 11.8367 31.1691 11.8576C31.0949 11.8792 31.0217 11.9035 30.9496 11.9293C30.8784 11.9552 30.8072 11.9844 30.7381 12.0145C30.6689 12.0453 30.6007 12.0779 30.5346 12.1129L16.5377 19.5225C16.3673 19.6118 16.2079 19.7162 16.0636 19.833C15.9192 19.9498 15.7889 20.0792 15.6756 20.2178C15.5633 20.3571 15.4683 20.5056 15.3919 20.6609C15.3158 20.817 15.2596 20.9781 15.2235 21.1433C15.1885 21.3127 15.1734 21.4847 15.1784 21.6566C15.1905 22.0008 15.2834 22.3396 15.4521 22.654C15.5371 22.8104 15.6402 22.9597 15.7598 23.0996C15.9533 23.33 16.1879 23.5353 16.4555 23.7072C16.7226 23.88 17.0197 24.0179 17.3366 24.1162C17.9739 24.3134 18.6681 24.3451 19.3275 24.2071C19.4026 24.1896 19.4778 24.1704 19.552 24.1487C19.6252 24.127 19.6984 24.1028 19.7705 24.0769C19.8424 24.0509 19.9129 24.0225 19.982 23.9918C20.0512 23.9618 20.1194 23.9292 20.1855 23.8942L25.5505 21.0632C25.77 20.9464 25.9936 20.8362 26.2231 20.7344C26.4517 20.6317 26.6853 20.5374 26.9238 20.4498C27.1616 20.3629 27.4034 20.2839 27.6486 20.2127C27.8942 20.141 28.1428 20.0775 28.3944 20.0225C29.489 19.7854 30.6198 19.6886 31.7495 19.7354C32.8792 19.7829 33.9929 19.9732 35.0535 20.3004C36.113 20.6275 37.1075 21.0874 38.0006 21.6649C38.8948 22.2417 39.6767 22.9285 40.3212 23.7022C40.7182 24.1654 41.059 24.6595 41.3387 25.1786C41.6183 25.6974 41.8353 26.2381 41.9862 26.7927C42.1366 27.3469 42.2208 27.9128 42.2369 28.4811C42.2529 29.0503 42.1998 29.6187 42.0805 30.1779C41.9623 30.7269 41.7758 31.2642 41.5241 31.7811C41.2726 32.2982 40.9568 32.7919 40.5819 33.2542C40.2079 33.7166 39.7769 34.1456 39.2957 34.5337C38.8146 34.9218 38.2863 35.2673 37.7189 35.5644L23.7211 42.9865C23.5016 43.1025 23.277 43.2118 23.0485 43.3137C22.8189 43.4155 22.5853 43.5098 22.3468 43.5966C22.1092 43.6842 21.8676 43.7635 21.622 43.8353C21.3774 43.9071 21.1288 43.9713 20.8782 44.0273Z" fill="white"/>
</svg>

<svg width="50" height="50" fill="none" xmlns="http://www.w3.org/2000/svg"><path d="M46.813 6.615c-5.58-6.645-16.6-8.614-24.568-4.39L8.253 9.648a15.988 15.988 0 0 0-2.618 1.708c-.8.643-1.517 1.354-2.139 2.121a12.857 12.857 0 0 0-1.568 2.443 11.743 11.743 0 0 0-1.196 4.975c-.013.777.052 1.553.194 2.32.141.768.359 1.525.65 2.262.29.738.654 1.454 1.087 2.142-.298.377-.573.766-.824 1.166-.252.4-.478.81-.68 1.23a11.857 11.857 0 0 0-.894 2.597c-.4 1.867-.347 3.782.156 5.632.25.922.61 1.822 1.075 2.685a13.842 13.842 0 0 0 1.693 2.456c5.58 6.645 16.6 8.614 24.567 4.39l13.992-7.392a15.98 15.98 0 0 0 2.616-1.71 14.357 14.357 0 0 0 2.138-2.122 12.826 12.826 0 0 0 1.568-2.442c.42-.857.732-1.748.931-2.658a11.78 11.78 0 0 0 .071-4.633 12.119 12.119 0 0 0-.65-2.261 12.996 12.996 0 0 0-1.089-2.14c.298-.377.573-.767.825-1.167.25-.4.478-.81.68-1.23a11.746 11.746 0 0 0 .9-2.597 11.952 11.952 0 0 0-.158-5.631c-.251-.923-.611-1.822-1.076-2.685a13.892 13.892 0 0 0-1.691-2.456" fill="#FF3E00"/><path d="M20.878 44.027a13.264 13.264 0 0 1-6.662-.281 11.93 11.93 0 0 1-2.949-1.365 10.265 10.265 0 0 1-2.32-2.038 8.271 8.271 0 0 1-1.018-1.476 7.598 7.598 0 0 1-.647-1.614 7.169 7.169 0 0 1-.025-3.658c.023-.091.05-.181.077-.27a6.575 6.575 0 0 1 .19-.533l.264-.671.718.446a18.962 18.962 0 0 0 2.613 1.322 20.33 20.33 0 0 0 2.843.938l.537.13-.048.446c-.026.304.012.61.112.903.05.146.114.288.193.425a3.09 3.09 0 0 0 .98 1.005c.268.174.568.312.888.41.32.1.655.156.995.17a3.941 3.941 0 0 0 1.235-.144 3.192 3.192 0 0 0 .634-.255l13.97-7.422c.172-.09.331-.193.477-.31a2.64 2.64 0 0 0 .388-.387 2.19 2.19 0 0 0 .451-.928 2.205 2.205 0 0 0-.032-1.021 2.25 2.25 0 0 0-.197-.487 3.081 3.081 0 0 0-1.008-1.057 3.61 3.61 0 0 0-.888-.41 4.027 4.027 0 0 0-2.007-.084 3.518 3.518 0 0 0-.858.312l-5.365 2.836a11.466 11.466 0 0 1-1.372.608 11.25 11.25 0 0 1-1.466.428 13.25 13.25 0 0 1-6.65-.284 11.914 11.914 0 0 1-2.942-1.363 10.256 10.256 0 0 1-2.319-2.033 8.306 8.306 0 0 1-1.013-1.477 7.586 7.586 0 0 1-.644-1.614 7.176 7.176 0 0 1-.086-3.384 7.358 7.358 0 0 1 1.498-3.077c.75-.927 1.726-1.714 2.863-2.31l14.014-7.422a11.257 11.257 0 0 1 1.364-.608 11.351 11.351 0 0 1 1.458-.429 13.286 13.286 0 0 1 3.355-.285c1.13.048 2.244.239 3.304.567 1.06.327 2.054.788 2.948 1.364a10.266 10.266 0 0 1 2.32 2.04c.397.462.739.956 1.018 1.475.28.519.497 1.059.648 1.614a7.178 7.178 0 0 1 .093 3.386 6.548 6.548 0 0 1-.146.547 6.415 6.415 0 0 1-.187.538l-.267.67-.714-.446a18.8 18.8 0 0 0-2.62-1.333 20.594 20.594 0 0 0-2.852-.945l-.538-.13.05-.446a2.186 2.186 0 0 0-.1-.909 2.546 2.546 0 0 0-.47-.825 3.084 3.084 0 0 0-.7-.6 3.559 3.559 0 0 0-.885-.4 3.97 3.97 0 0 0-2.212-.018 3.828 3.828 0 0 0-.43.156 3.32 3.32 0 0 0-.204.099l-13.997 7.41c-.17.089-.33.193-.474.31a2.67 2.67 0 0 0-.388.385c-.113.14-.208.288-.284.443a2.142 2.142 0 0 0-.168.482c-.036.17-.05.342-.046.514.012.344.105.683.274.997.085.156.188.306.308.446.193.23.428.435.696.607.267.173.564.31.88.41a4.005 4.005 0 0 0 1.992.09 4.18 4.18 0 0 0 .442-.13 3.206 3.206 0 0 0 .416-.183l5.364-2.83a10.46 10.46 0 0 1 1.374-.614 11.259 11.259 0 0 1 1.47-.427 13.276 13.276 0 0 1 3.356-.288c1.13.048 2.243.238 3.303.565 1.06.328 2.055.787 2.948 1.365a10.221 10.221 0 0 1 2.32 2.037c.397.463.738.957 1.018 1.477.28.518.496 1.06.647 1.614a7.16 7.16 0 0 1 .094 3.385 7.05 7.05 0 0 1-.556 1.603 7.66 7.66 0 0 1-.942 1.473 8.576 8.576 0 0 1-1.286 1.28 9.609 9.609 0 0 1-1.577 1.03L23.72 42.986a11.226 11.226 0 0 1-2.843 1.041z" fill="#fff"/></svg>
